svg/docker.svg

<?xml version="1.0" encoding="UTF-8"?>
<svg xmlns="http://www.w3.org/2000/svg" xmlns:xlink="http://www.w3.org/1999/xlink" width="32" height="32" viewBox="0 0 32 32">
<path fill-rule="nonzero" fill="rgb(0%, 0%, 0%)" fill-opacity="1" d="M 14.191406 4.667969 L 14.191406 7.738281 L 17.496094 7.738281 L 17.496094 4.667969 Z M 6.382812 8.34375 L 6.382812 11.382812 L 9.6875 11.382812 L 9.6875 8.34375 Z M 10.289062 8.34375 L 10.289062 11.382812 L 13.589844 11.382812 L 13.589844 8.34375 Z M 14.191406 8.34375 L 14.191406 11.382812 L 17.496094 11.382812 L 17.496094 8.34375 Z M 24.925781 9.285156 L 24.460938 9.992188 C 23.539062 11.398438 23.289062 13.714844 24.277344 15.242188 C 23.839844 15.480469 22.988281 15.800781 21.855469 15.785156 L 0.125 15.785156 C -0.308594 18.351562 0.414062 21.691406 2.324219 23.984375 C 4.175781 26.207031 6.957031 27.332031 10.589844 27.332031 C 18.460938 27.332031 24.285156 23.667969 27.011719 17.003906 C 28.078125 17.023438 30.390625 17.007812 31.574219 14.714844 C 31.652344 14.589844 31.90625 14.050781 32 13.851562 L 31.335938 13.402344 C 30.617188 12.914062 28.957031 12.734375 27.683594 12.976562 C 27.515625 11.761719 26.847656 10.707031 25.628906 9.753906 Z M 2.480469 11.992188 L 2.480469 14.996094 L 5.785156 14.996094 L 5.785156 11.992188 Z M 6.382812 11.992188 L 6.382812 14.996094 L 9.6875 14.996094 L 9.6875 11.992188 Z M 10.289062 11.992188 L 10.289062 14.996094 L 13.589844 14.996094 L 13.589844 11.992188 Z M 18.101562 11.992188 L 18.101562 14.996094 L 21.40625 14.996094 L 21.40625 11.992188 Z M 14.191406 11.996094 L 14.191406 15.003906 L 17.496094 15.003906 L 17.496094 11.996094 Z M 14.191406 11.996094 "/>
</svg>

<svg role="img" viewBox="0 0 32 32" height="32" width="32" xmlns="http://www.w3.org/2000/svg"><path d="M14.191 4.668v3.07h3.305v-3.07ZM6.383 8.344v3.039h3.305v-3.04Zm3.906 0v3.039h3.3v-3.04Zm3.902 0v3.039h3.305v-3.04Zm10.735.941-.465.707c-.922 1.406-1.172 3.723-.184 5.25-.437.238-1.289.559-2.422.543H.125c-.434 2.567.29 5.906 2.2 8.2 1.85 2.222 4.632 3.347 8.265 3.347 7.87 0 13.695-3.664 16.422-10.328 1.066.02 3.379.004 4.562-2.29.078-.124.332-.663.426-.862l-.664-.45c-.719-.488-2.379-.668-3.652-.425-.168-1.215-.836-2.27-2.055-3.223ZM2.48 11.992v3.004h3.305v-3.004Zm3.903 0v3.004h3.305v-3.004Zm3.906 0v3.004h3.3v-3.004Zm7.813 0v3.004h3.304v-3.004Zm-3.91.004v3.008h3.304v-3.008Zm0 0"/></svg>
